assets/images/moving6.svg

<svg width="64" height="64" viewBox="0 0 64 64" fill="none" xmlns="http://www.w3.org/2000/svg">
<g clip-path="url(#clip0_51_9156)">
<path d="M56.7502 12.21V57.21H7.25023V12.21C7.24364 11.4995 7.37705 10.7947 7.64285 10.1358C7.90865 9.47694 8.30163 8.87685 8.79936 8.36984C9.29709 7.86283 9.88981 7.45882 10.5437 7.18088C11.1976 6.90295 11.8998 6.75654 12.6102 6.75H51.4002C52.8333 6.76583 54.2016 7.34967 55.2046 8.37335C56.2077 9.39702 56.7636 10.7769 56.7502 12.21Z" fill="white" stroke="#022F45" stroke-width="0.5"/>
<path d="M6.75023 57V57.25H56.2502V12.25C56.2621 11.537 56.133 10.8287 55.8702 10.1659C55.6074 9.50299 55.2161 8.89861 54.7189 8.38748C54.2218 7.87634 53.6284 7.46854 52.9731 7.18752C52.3177 6.9065 51.6133 6.75781 50.9002 6.75H12.1002C10.6671 6.76583 9.29888 7.34967 8.29583 8.37335C7.29277 9.39702 6.7369 10.7769 6.75023 12.21V57ZM37.8802 27.83V19.75H53.7102V54.67H9.29023V19.75H25.1202V28.08H37.8802V27.83ZM37.6202 46.33H37.3802V48.92H48.0802V46.33H37.6202ZM53.7102 12.21V17.21H37.8802V9.33H50.8802C51.2554 9.33261 51.6263 9.40925 51.9717 9.55553C52.3171 9.7018 52.6303 9.91483 52.8932 10.1824C53.1561 10.45 53.3637 10.7668 53.5039 11.1148C53.6441 11.4627 53.7142 11.8349 53.7102 12.21ZM27.7102 9.33H35.3702V25.5H27.6702L27.7102 9.33ZM12.1402 9.33H25.1402V17.17H9.29023V12.17C9.29278 11.4227 9.58871 10.7064 10.1143 10.1752C10.6399 9.644 11.353 9.34048 12.1002 9.33H12.1402Z" fill="#022F45" stroke="#022F45" stroke-width="0.5"/>
</g>
<defs>
<clipPath id="clip0_51_9156">
<rect width="64" height="64" fill="white"/>
</clipPath>
</defs>
</svg>

<svg width="64" height="64" fill="none" xmlns="http://www.w3.org/2000/svg"><g clip-path="url(#a)" stroke="#022F45" stroke-width=".5"><path d="M56.75 12.21v45H7.25v-45a5.41 5.41 0 0 1 5.36-5.46H51.4a5.41 5.41 0 0 1 5.35 5.46Z" fill="#fff"/><path d="M6.75 57v.25h49.5v-45a5.41 5.41 0 0 0-5.35-5.5H12.1a5.41 5.41 0 0 0-5.35 5.46V57Zm31.13-29.17v-8.08h15.83v34.92H9.29V19.75h15.83v8.33h12.76v-.25Zm-.26 18.5h-.24v2.59h10.7v-2.59H37.62Zm16.09-34.12v5H37.88V9.33h13a2.85 2.85 0 0 1 2.83 2.88Zm-26-2.88h7.66V25.5h-7.7l.04-16.17Zm-15.57 0h13v7.84H9.29v-5a2.85 2.85 0 0 1 2.81-2.84h.04Z" fill="#022F45"/></g><defs><clipPath id="a"><path fill="#fff" d="M0 0h64v64H0z"/></clipPath></defs></svg>
